svg/u1f454.svg

<svg viewBox="0 0 128 128" xmlns="http://www.w3.org/2000/svg">
  <g>
    <path d="M64,19.06c-26.11,0-44.26,6.14-53.07,9.99c-3.71,1.62-6.1,5.28-6.1,9.33v77.24 c0,3.97,3.22,7.2,7.2,7.2H64h51.97c3.97,0,7.2-3.22,7.2-7.2V38.38c0-4.05-2.39-7.71-6.1-9.33C108.26,25.2,90.11,19.06,64,19.06z" fill="#BAE2FD"/>
    <path d="M38.79,63.9c0,0-0.98,2.34,4.63,1.41c4.18-0.69,20.04-10.46,22.28-10.46 c2.23,0,19.61,16.4,24.81,9.66c2.47-3.2-23.79-23.24-23.79-23.24l-4.41-0.11L38.79,63.9z" fill="#77ABC0"/>
    <path d="M56.43,72.7c0,0-7.49,9.7-8.62,21.7c-0.62,6.55-1.49,27.23-1.49,27.23s-0.51,2.37,4.72,2.35 c4.23-0.02,21.48,0.02,26.18,0.02c5.17,0,4.8-2.38,4.8-2.38s-0.55-18.06-1.3-25.96c-1.01-10.71-9.24-20.93-9.24-22.57 c0-1.15,6.95-9.6,9.88-14.38L64.16,41.79L50.39,55.54C51.38,60.09,56.43,72.7,56.43,72.7z" fill="#DE7340"/>
    <g>
      <path d="M80.2,92.45C72.72,86.91,58.2,79,53.86,76.67c-0.64,1.1-1.33,2.39-2.03,3.85 c10.23,5.06,20.89,11.05,29.11,17.76c-0.07-0.95-0.14-1.83-0.21-2.6C80.62,94.59,80.43,93.51,80.2,92.45z" fill="#F3AB47"/>
      <path d="M81.68,112.15c-10.69-8.2-25.78-17.2-33.4-20.97c0,0-0.22,1.31-0.31,1.96 c-0.15,1.05-0.26,2.63-0.26,2.63c7.72,4.03,23.6,13.35,34.19,22.04C81.85,116.38,81.76,114.39,81.68,112.15z" fill="#F3AB47"/>
      <path d="M46.69,113.55c5.62,3.45,11.84,7.47,16.32,10.43c2.65,0,5.36,0.01,7.76,0.01 c-6.08-4.16-15.31-10.14-23.84-15.33C46.85,110.35,46.76,112.01,46.69,113.55z" fill="#F3AB47"/>
      <path d="M71.41,54.47c0,0-1.01-1.1-1.99-1.66c-0.98-0.56-2.06-0.99-2.06-0.99 c-4.61,2.97-10.38,7.55-14.29,12.06c0.6,1.65,1.21,3.28,1.75,4.68C58.92,62.98,66.22,57.67,71.41,54.47z" fill="#F3AB47"/>
    </g>
    <path d="M52,60.86c0,0,6.22-9.87,12.91-9.46c8.52,0.51,12.45,13.12,12.45,13.12l3.59-5.06L65.12,42.64 c-0.41-0.02-1.34,0.03-1.77,0.04l-12.9,13.4C50.7,57.19,52,60.86,52,60.86z" fill="#874D36"/>
    <path d="M102.73,20.65c0,0-5.22-6.69-10.08-8.15c-3.91-1.18-2.91,2.27-7.75,10.12 c-4.03,6.54-16.95,16.2-20.74,19.17c-3.78-2.97-16.7-12.63-20.74-19.17c-4.83-7.84-3.83-11.3-7.75-10.12 c-4.86,1.47-10.08,8.15-10.08,8.15c-2.9,3.76-3.65,8.7-2.15,13.11l13,28.84c0.86,2.9,4.83,3.65,6.98,1.4l20.74-21.28L84.9,63.99 c2.15,2.26,6.12,1.5,6.98-1.4l13-28.84C106.38,29.35,105.63,24.41,102.73,20.65z" fill="#E8F6FF"/>
    <path d="M84.01,22.38c-1.42,2.39-11.96,13.01-19.72,18.13c-0.1,0.07-0.47,0.07-0.57,0 c-7.76-5.12-18.3-15.74-19.72-18.13c-1.42-2.39,1.15-3.26,2.37-3.41c0,0,6.99-1.18,17.64-1.29c10.65,0.12,17.64,1.29,17.64,1.29 C82.86,19.11,85.43,19.98,84.01,22.38z" fill="#77ABC0"/>
    <path d="M96.92,12.75c-3.18-3.01-6.05-5.67-10.27-6.76c-3.89-1.01-7.95-1.4-11.94-1.67 C71.14,4.09,67.57,4,64,4c-3.57,0-7.14,0.09-10.71,0.33c-4,0.27-8.05,0.66-11.94,1.67c-4.23,1.09-7.09,3.75-10.27,6.76 c-4.38,4.14-6.37,8.49-7.6,11.79c2.57-3.72,5.84-7.73,9.65-10.03c0.8-0.48,3.98-3.15,5.66,0.42c1.34,2.85,2.01,4.82,3.99,7.65 c6.25,8.89,18.02,17.74,20.73,19.65c0.29,0.21,0.68,0.21,0.98,0c2.71-1.91,14.95-11.12,20.73-19.65c1.81-2.66,2.66-4.8,3.99-7.65 c1.67-3.57,4.86-0.9,5.66-0.42c3.81,2.3,7.08,6.31,9.65,10.03C103.3,21.25,101.3,16.9,96.92,12.75z M82.67,22.83 c-1.33,2.23-11.16,12.14-18.4,16.92c-0.1,0.06-0.44,0.06-0.53,0c-7.24-4.78-17.08-14.69-18.4-16.92 c-1.33-2.23,1.07-3.05,2.21-3.18c0,0,6.52-1.1,16.46-1.21c9.94,0.11,16.46,1.21,16.46,1.21C81.6,19.78,83.99,20.59,82.67,22.83z" fill="#BAE2FD"/>
    <path d="M71.55,72.62l-0.06,0.84c-2.77,1.62-5.13,2.03-7.87,2.11c-2.74,0.08-5.37-0.75-7.73-2.15l0.46-0.96 c1.76-1.5,4.45-1.82,6.73-1.83C69.23,70.62,71.55,72.62,71.55,72.62z" fill="#874D36"/>
  </g>
</svg>

<svg viewBox="0 0 128 128" xmlns="http://www.w3.org/2000/svg">
  <defs/>
  <path d="M64,19.06 C37.89,19.06 19.74,25.2 10.93,29.05 C7.22,30.67 4.83,34.33 4.83,38.38 L4.83,115.62 C4.83,119.59 8.05,122.82 12.03,122.82 L64,122.82 L115.97,122.82 C119.94,122.82 123.17,119.6 123.17,115.62 L123.17,38.38 C123.17,34.33 120.78,30.67 117.07,29.05 C108.26,25.2 90.11,19.06 64,19.06 Z" fill="#BAE2FD"/>
  <path d="M38.79,63.9 C38.79,63.9 37.81,66.24 43.42,65.31 C47.6,64.62 63.46,54.85 65.7,54.85 C67.93,54.85 85.31,71.25 90.51,64.51 C92.98,61.31 66.72,41.27 66.72,41.27 L62.31,41.16 L38.79,63.9 Z" fill="#77ABC0"/>
  <path d="M56.43,72.7 C56.43,72.7 48.94,82.4 47.81,94.4 C47.19,100.95 46.32,121.63 46.32,121.63 C46.32,121.63 45.81,124 51.04,123.98 C55.27,123.96 72.52,124 77.22,124 C82.39,124 82.02,121.62 82.02,121.62 C82.02,121.62 81.47,103.56 80.72,95.66 C79.71,84.95 71.48,74.73 71.48,73.09 C71.48,71.94 78.43,63.49 81.36,58.71 L64.16,41.79 L50.39,55.54 C51.38,60.09 56.43,72.7 56.43,72.7 Z" fill="#DE7340"/>
  <path d="M80.2,92.45 C72.72,86.91 58.2,79 53.86,76.67 C53.22,77.77 52.53,79.06 51.83,80.52 C62.06,85.58 72.72,91.57 80.94,98.28 C80.87,97.33 80.8,96.45 80.73,95.68 C80.62,94.59 80.43,93.51 80.2,92.45 Z" fill="#F3AB47"/>
  <path d="M81.68,112.15 C70.99,103.95 55.9,94.95 48.28,91.18 C48.28,91.18 48.06,92.49 47.97,93.14 C47.82,94.19 47.71,95.77 47.71,95.77 C55.43,99.8 71.31,109.12 81.9,117.81 C81.85,116.38 81.76,114.39 81.68,112.15 Z" fill="#F3AB47"/>
  <path d="M46.69,113.55 C52.31,117 58.53,121.02 63.01,123.98 C65.66,123.98 68.37,123.99 70.77,123.99 C64.69,119.83 55.46,113.85 46.93,108.66 C46.85,110.35 46.76,112.01 46.69,113.55 Z" fill="#F3AB47"/>
  <path d="M71.41,54.47 C71.41,54.47 70.4,53.37 69.42,52.81 C68.44,52.25 67.36,51.82 67.36,51.82 C62.75,54.79 56.98,59.37 53.07,63.88 C53.67,65.53 54.28,67.16 54.82,68.56 C58.92,62.98 66.22,57.67 71.41,54.47 Z" fill="#F3AB47"/>
  <path d="M52,60.86 C52,60.86 58.22,50.99 64.91,51.4 C73.43,51.91 77.36,64.52 77.36,64.52 L80.95,59.46 L65.12,42.64 C64.71,42.62 63.78,42.67 63.35,42.68 L50.45,56.08 C50.7,57.19 52,60.86 52,60.86 Z" fill="#874D36"/>
  <path d="M102.73,20.65 C102.73,20.65 97.51,13.96 92.65,12.5 C88.74,11.32 89.74,14.77 84.9,22.62 C80.87,29.16 67.95,38.82 64.16,41.79 C60.38,38.82 47.46,29.16 43.42,22.62 C38.59,14.78 39.59,11.32 35.67,12.5 C30.81,13.97 25.59,20.65 25.59,20.65 C22.69,24.41 21.94,29.35 23.44,33.76 L36.44,62.6 C37.3,65.5 41.27,66.25 43.42,64 L64.16,42.72 L84.9,63.99 C87.05,66.25 91.02,65.49 91.88,62.59 L104.88,33.75 C106.38,29.35 105.63,24.41 102.73,20.65 Z" fill="#E8F6FF"/>
  <path d="M84.01,22.38 C82.59,24.77 72.05,35.39 64.29,40.51 C64.19,40.58 63.82,40.58 63.72,40.51 C55.96,35.39 45.42,24.77 44,22.38 C42.58,19.99 45.15,19.12 46.37,18.97 C46.37,18.97 53.36,17.79 64.01,17.68 C74.66,17.8 81.65,18.97 81.65,18.97 C82.86,19.11 85.43,19.98 84.01,22.38 Z" fill="#77ABC0"/>
  <path d="M96.92,12.75 C93.74,9.74 90.87,7.08 86.65,5.99 C82.76,4.98 78.7,4.59 74.71,4.32 C71.14,4.09 67.57,4 64,4 C60.43,4 56.86,4.09 53.29,4.33 C49.29,4.6 45.24,4.99 41.35,6 C37.12,7.09 34.26,9.75 31.08,12.76 C26.7,16.9 24.71,21.25 23.48,24.55 C26.05,20.83 29.32,16.82 33.13,14.52 C33.93,14.04 37.11,11.37 38.79,14.94 C40.13,17.79 40.8,19.76 42.78,22.59 C49.03,31.48 60.8,40.33 63.51,42.24 C63.8,42.45 64.19,42.45 64.49,42.24 C67.2,40.33 79.44,31.12 85.22,22.59 C87.03,19.93 87.88,17.79 89.21,14.94 C90.88,11.37 94.07,14.04 94.87,14.52 C98.68,16.82 101.95,20.83 104.52,24.55 C103.3,21.25 101.3,16.9 96.92,12.75 Z M82.67,22.83 C81.34,25.06 71.51,34.97 64.27,39.75 C64.17,39.81 63.83,39.81 63.74,39.75 C56.5,34.97 46.66,25.06 45.34,22.83 C44.01,20.6 46.41,19.78 47.55,19.65 C47.55,19.65 54.07,18.55 64.01,18.44 C73.95,18.55 80.47,19.65 80.47,19.65 C81.6,19.78 83.99,20.59 82.67,22.83 Z" fill="#BAE2FD"/>
  <path d="M71.55,72.62 L71.49,73.46 C68.72,75.08 66.36,75.49 63.62,75.57 C60.88,75.65 58.25,74.82 55.89,73.42 L56.35,72.46 C58.11,70.96 60.8,70.64 63.08,70.63 C69.23,70.62 71.55,72.62 71.55,72.62 Z" fill="#874D36"/>
</svg>
